X:532200
F:http://www.vwml.org/record/HAM/5/32/2
%%VWML:HAM-5-32-2-0
T:Sheermount Side
T:Shannon Side
S:Mrs Marina Russell, Upwey coll. HED Hammond
O:England
A:Dorset
N:Transcribed from HAM-02-233.gif
F:HAM-05-32-20.abc
Z:EFDSS;PJHeadford
M:C|
L:1/4
Q:2/4=60
K:Db
G/A/|BB AG|F>E DE|F>G EE&xxxD|E3 B,|
E>F G>A|(B>A) BB|dB AA|B3 B/B/|E>F GA|
(B>A) BB|dd AA&d<dxx|d3 e|B>A GE|F>E DE|
A>F EE&x>"_also Gb"GxD|E3||yyyy"<or ending:-"y|F>_G EE&xxxD|E3||
W:Transcribed from HAM-02-233.gif Hammond's field notes
W:[after the tune above:] Words D VII p 67
W:The words below transcribed from HAM-01-686.gif - Hammond's field notes
W:[above and left of title:] Tune 517 [above title:] D.788
W:[title:] Fragment of 'Shannon Side<i> [right of title:] Russell</i>
W:
W:Where are you going, my pretty maid, where are you going this morn
W:What makes you rise so early, where are you going so soon
W:With her cheeks like blooming roses the pretty maid replied
W:I am going to milk my father's cows down by the sheermount
W:[above the last word is:] Shurmont
W:(Shannon) side.
W:
W:In walking along by the side of her I stole a milking Kiss
W:Beware of such impudence, what do you mean by this
W:The ground being so unlevel her foot it chanced to slide
W:We both fell down together down by the sheermount side?
W:
W:If you will not marry me, pray tell to me your name
W:That when my little babe is born I may call it the same
W:My name is Capt Thunderbolt that name I've never denied
W:I have 500 seamen bold ploughing the ocean wide
W:
W:The MIDI file HAM-05-32-20.mid has four verses: in the second, alternative notes are used; W:in the third, the flattened G and the alternative ending are used;
W:in the fourth, the alternatives in this ending are used.
